build/assets/images/svg/icons/product/filters.svg

<svg width="25" height="24" viewBox="0 0 25 24" fill="none" xmlns="http://www.w3.org/2000/svg">
<path d="M4.5 6C4.5 5.44772 4.94772 5 5.5 5H19.5C20.0523 5 20.5 5.44772 20.5 6C20.5 6.55228 20.0523 7 19.5 7H5.5C4.94772 7 4.5 6.55228 4.5 6Z" fill="#203686"/>
<path d="M6.5 12C6.5 11.4477 6.94772 11 7.5 11H17.5C18.0523 11 18.5 11.4477 18.5 12C18.5 12.5523 18.0523 13 17.5 13H7.5C6.94772 13 6.5 12.5523 6.5 12Z" fill="#203686"/>
<path d="M9.5 17C8.94772 17 8.5 17.4477 8.5 18C8.5 18.5523 8.94772 19 9.5 19H15.5C16.0523 19 16.5 18.5523 16.5 18C16.5 17.4477 16.0523 17 15.5 17H9.5Z" fill="#203686"/>
</svg>

<svg width="25" height="24" fill="none" xmlns="http://www.w3.org/2000/svg"><path d="M4.5 6a1 1 0 011-1h14a1 1 0 110 2h-14a1 1 0 01-1-1zm2 6a1 1 0 011-1h10a1 1 0 110 2h-10a1 1 0 01-1-1zm3 5a1 1 0 100 2h6a1 1 0 100-2h-6z" fill="#203686"/></svg>
